X: 950
T: All Hands Around
R: reel
M: 4/4
K: Gmajor
G2 Be d2 B/c/d|gdBd cA F/G/A|G2 Be dBBd|cAFA GDEF|
G2 Be dB B/B/B|gdBd cAFA|G2 A/B/c Bdeg|fdcA G2||
bagb a2 fa|gfge dfga|ba g/a/b a2 fa|gfe^c d2 ga|
b2 gb agfa|gfge dBAF|G2 A/B/c Bdeg|fdcA G2||

